!!!OTL: Die Erscheinung in der Brautnacht (55a), S. 176
!!!id: T0199
**kern
*clefG2
*k[f#]
*G:
{8d
8g
=1
4.g
8g
8g
8g
8b
8g
=2
8g
8f#
4f#}
4r
=3
{8d
8f#
=4
4.a
8b
8cc
8a
8f#
8d
=5
4b
4g}
4r
=6
{8g
16g
16ee
=7
4.ee
8dd
8cc
8b
8a
8g
=8
8f#
8a
4cc}
4r
=9
{8a
8cc
=10
8b
8dd
8g
8b
8a
8ee
8dd
8f#
=11
4a
4g}
4r
=12
{8g
16g
16ee
=13
4.ee
8dd
8cc
8b
8a
8g
=14
8f#
8a
4cc}
4r
=15
{8a
8cc
=16
8b
8dd
8g
8b
8a
8ee
8dd
8f#
=17
4a
4g}
4r
==
*-
!!!minrhy: 16
!!!meters: 4/4 ]  ZZ[6
!!!cut: Die Erscheinung in der Brautnacht (55a), S. 176
!!!reg: Luxemburg
!!!trd: Singendes Volk, Esch-Alzette 1937 posth.
!!!rhy1: X_X_  X__.X_X_X_X_X_  X_X_X__0_   (x2)
!!!rhy2: X_X_  X__.X_X_X_X_X_  X__X__0_
!!!key: T0199  16  G 4/4 ]  ZZ[6
!!!mod: HEPTATONIK IONISCH]  AMBITUS[9
!!!kad: -714141
!!!akz: 111_243_64-7_322_64-7_322_
!!!fot: 'a__b__c__d__c__d__
!!!for: 'a__b__av_c__av_c__
!!!fok: '^a_^a_~a_^d_~a_^d_
!! PHRAS[AUFTAKTIG]
!!!fkt: Liebeslieder
!!!bem: Strassen, fff Witry, 6.12.1932
!! THILL, Mathias:
!! PR[21] 2K[1] 2G[1] 3K[12] 3G[4] 4A[4] 4Ü[0] 5A[3] 6K[0] 6G[6]
!! 7K[0] 7G[0] 8A[0] MEHR[0] SI[33] ABS[67] SR[3] SP[30]
!! ST[12] 2k[9] 2g[18] 3k[4] 3g[6] 4d[1] 4ü[0] 5d[3] 6k[3] 6g[1]
!! 7k[0] 7g[0] 8d[0] mehr[0] si[46] dm[-13] sr[27] sp[19]
!! 1F[5] 2F[68] 3F[22] 4F[0] LF[0] 2P[0] 3P[5] 4P[0] TRI[0] DF[4] AB[74]
!! TF[0] U3K[0] U3[0] U4[0] U4Ü[0] U5[4] U6K[0] U6[0] U7K[0] U7[12]
!! N1[31] N2K[0] N2[16] N3K[0] N3[10] N4[7] N4Ü[0] N5[10] N6K[0] N6[9]
!!!n7k: 0] N7[0] O1[0] O2K[0] O2[0] O3K[0] O3[0] HÖ[0
